X:2851
L:1/8
Q:3/8=100
M:6/8
K:Emin
 D | D>B,D D>B,D | DB,D D2 G | E>GE E>DE | G>AB TB2 A | A>Bd e>ge | dBA G>AB | B>ed B>AB | 
 G>ED E2 :: d | d>ed dBd | ege e2 d | d>Bd edc | TB2 A G2 e | g>ed edB | dBA TB2 G | ABd e>de | 
 BEE E2 :|

